frontend/src/images/fail-white.svg

﻿<svg width="16" height="16" viewBox="0 0 16 16" fill="none" xmlns="http://www.w3.org/2000/svg">
<path fill-rule="evenodd" clip-rule="evenodd" d="M9.06462 0.435C8.48462 -0.145 7.54462 -0.145 6.96462 0.435L0.450625 6.95C-0.129375 7.53 -0.129375 8.469 0.450625 9.048L6.96662 15.564C7.54662 16.144 8.48562 16.144 9.06462 15.564L15.5806 9.048C16.1606 8.468 16.1606 7.529 15.5806 6.95L9.06462 0.435ZM8.01462 4C7.88823 4.00007 7.76326 4.02662 7.64775 4.07793C7.53224 4.12924 7.42875 4.20418 7.34397 4.29791C7.25918 4.39165 7.19497 4.5021 7.15547 4.62217C7.11597 4.74223 7.10206 4.86923 7.11462 4.995L7.46462 8.502C7.47638 8.63977 7.53942 8.76811 7.64127 8.86164C7.74311 8.95516 7.87635 9.00705 8.01462 9.00705C8.1529 9.00705 8.28613 8.95516 8.38798 8.86164C8.48983 8.76811 8.55286 8.63977 8.56462 8.502L8.91462 4.995C8.92719 4.86923 8.91328 4.74223 8.87378 4.62217C8.83428 4.5021 8.77007 4.39165 8.68528 4.29791C8.60049 4.20418 8.49701 4.12924 8.3815 4.07793C8.26599 4.02662 8.14102 4.00007 8.01462 4ZM8.01662 10C7.75141 10 7.49705 10.1054 7.30952 10.2929C7.12198 10.4804 7.01662 10.7348 7.01662 11C7.01662 11.2652 7.12198 11.5196 7.30952 11.7071C7.49705 11.8946 7.75141 12 8.01662 12C8.28184 12 8.53619 11.8946 8.72373 11.7071C8.91127 11.5196 9.01662 11.2652 9.01662 11C9.01662 10.7348 8.91127 10.4804 8.72373 10.2929C8.53619 10.1054 8.28184 10 8.01662 10Z" fill="white"/>
</svg>

<svg width="16" height="16" fill="none" xmlns="http://www.w3.org/2000/svg"><path fill-rule="evenodd" clip-rule="evenodd" d="M9.065.435c-.58-.58-1.52-.58-2.1 0L.45 6.95c-.58.58-.58 1.519 0 2.098l6.516 6.516c.58.58 1.519.58 2.098 0l6.516-6.516c.58-.58.58-1.519 0-2.098L9.065.435zM8.015 4a.905.905 0 00-.9.995l.35 3.507a.552.552 0 001.1 0l.35-3.507a.905.905 0 00-.9-.995zm.002 6a1 1 0 100 2 1 1 0 000-2z" fill="#fff"/></svg>
